X:1
T:Title
%%score [ ( 1 2 ) ( 3 4 ) ] { ( 5 6 ) | ( 7 8 ) }
L:1/8
Q:1/4=120
M:4/4
K:D
V:1 treble nm="Midi_74"
V:2 treble 
V:3 bass nm="Midi_74"
V:4 bass 
V:5 treble nm="Org."
V:6 treble 
V:7 bass 
V:8 bass 
V:1
 F8 | B4 (c2 B2) | ^A8 || B8 | A4 (G2 F2) | E4 (F2 G2) | F8 || A8 | d4 (e2 d2) | c8 || e8 | %11
 d4 (c2 B2) |"^William Henry Havergal\n(1793-1870)" B4 ^A4 | B8 |] %14
V:2
 D8 | G4 G4 | F8 || F8 | E4 D4 | D4 C4 | D8 || F8 | F4 E4 | E8 || G8 | F4 G4 | F4 (F2 E2) | D8 |] %14
V:3
 B,8 | D4 C4 | C8 || D8 | A,4 A,4 | B,4 A,4 | A,8 || A,8 | B,4 B,4 | A,8 || C8 | D4 E4 | %12
 (D2 C2) C4 | B,8 |] %14
V:4
 B,8 | G,4 E,4 | F,8 || B,,8 | C,4 D,4 | G,,4 A,,4 | D,8 || D,8 | B,,4 G,,4 | A,,8 || ^A,,8 | %11
 B,,4 E,4 | F,4 F,4 | B,,8 |] %14
V:5
 F8 | B4 c2 B2 | ^A8 || B8 | A4 G2 F2 | E4 F2 G2 | F8 || A8 | d4 e2 d2 | c8 || e8 | d4 c2 B2 | %12
 [FB]4 [C^A]4 | [B,B]8 |] %14
V:6
 D8 | [DG]4 [CG]4 | [CF]8 || [DF]8 | E4 D4 | D4 C4 | D8 || [DF]8 | [FB]4 [EB]4 | [EA]8 || [Gc]8 | %11
 F4 [EG]4 | D2 C2 F2 E2 | D8 |] %14
V:7
 x8 | x8 | x8 || x8 | A,8 | B,4 A,4 | A,8 || x8 | x8 | x8 || x8 | x8 | x8 | x8 |] %14
V:8
 B,8 | G,4 E,4 | F,8 || B,,8 | C,4 D,4 | G,,4 A,,4 | D,8 || D,8 | B,,4 G,,4 | A,,8 || ^A,,8 | %11
 B,,4 E,4 | F,4 F,4 | B,,8 |] %14

